svg/today.svg

<?xml version="1.0" encoding="UTF-8"?>
<svg xmlns="http://www.w3.org/2000/svg" xmlns:xlink="http://www.w3.org/1999/xlink" width="32" height="32" viewBox="0 0 32 32">
<path fill-rule="nonzero" fill="rgb(0%, 0%, 0%)" fill-opacity="1" d="M 7.679688 0 C 6.980469 0 6.398438 0.578125 6.398438 1.28125 L 6.398438 2.558594 L 2.558594 2.558594 C 1.816406 2.558594 1.28125 3.097656 1.28125 3.839844 L 1.28125 8.320312 L 30.71875 8.320312 L 30.71875 3.839844 C 30.71875 3.097656 30.183594 2.558594 29.441406 2.558594 L 25.601562 2.558594 L 25.601562 1.28125 C 25.597656 0.574219 25.027344 0.00390625 24.320312 0 L 23.039062 0 C 22.339844 0 21.761719 0.578125 21.761719 1.28125 L 21.761719 2.558594 L 10.238281 2.558594 L 10.238281 1.28125 C 10.238281 0.578125 9.660156 0 8.960938 0 Z M 7.679688 1.28125 L 8.960938 1.28125 L 8.960938 5.121094 L 7.679688 5.121094 Z M 23.039062 1.28125 L 24.320312 1.28125 L 24.320312 5.121094 L 23.039062 5.121094 Z M 1.28125 9.601562 L 1.28125 29.441406 C 1.28125 30.148438 1.851562 30.71875 2.558594 30.71875 L 29.441406 30.71875 C 30.148438 30.71875 30.71875 30.148438 30.71875 29.441406 L 30.71875 9.601562 Z M 20.929688 13.3125 L 22.003906 14.003906 L 15.628906 23.898438 L 10.617188 19.363281 L 11.476562 18.414062 L 15.371094 21.9375 Z M 20.929688 13.3125 "/>
</svg>

<svg role="img" viewBox="0 0 32 32" height="32" width="32" xmlns="http://www.w3.org/2000/svg"><path d="M7.68 0c-.7 0-1.282.578-1.282 1.281V2.56h-3.84c-.742 0-1.277.539-1.277 1.28v4.48H30.72V3.84c0-.742-.535-1.281-1.278-1.281h-3.84V1.28A1.29 1.29 0 0 0 24.322 0H23.04c-.7 0-1.277.578-1.277 1.281V2.56H10.238V1.28C10.238.578 9.66 0 8.961 0Zm0 1.281h1.28v3.84H7.68Zm15.36 0h1.28v3.84h-1.28ZM1.28 9.601v19.84c0 .707.57 1.278 1.278 1.278H29.44c.707 0 1.278-.57 1.278-1.278V9.601Zm19.649 3.711 1.074.692-6.375 9.894-5.012-4.535.86-.949 3.894 3.523Zm0 0"/></svg>
